dist/assets/img/main/main-block/icons/1.svg

<svg width="64" height="64" viewBox="0 0 64 64" fill="none" xmlns="http://www.w3.org/2000/svg">
<path d="M63.2242 35.1929C62.8667 33.9138 62.53 32.7047 62.53 31.6014C62.53 30.4981 62.8667 29.289 63.2242 28.0098C63.7932 25.9736 64.3803 23.8673 63.6777 21.8201C62.9487 19.6904 61.1318 18.2986 59.3748 16.9548C58.3216 16.1483 57.3269 15.3871 56.6814 14.549C56.0248 13.6944 55.5601 12.554 55.0704 11.3463C54.2621 9.36225 53.4274 7.30954 51.5576 6.02075C49.7185 4.7512 47.423 4.62891 45.2068 4.51213C43.824 4.43931 42.5162 4.36923 41.4214 4.03261C40.3975 3.71797 39.3374 3.06533 38.2161 2.37423C36.4117 1.26131 34.3652 0 31.9988 0C29.6324 0 27.5859 1.26131 25.7816 2.3756C24.6602 3.06671 23.6029 3.72072 22.5776 4.03399C21.4814 4.37061 20.1736 4.44068 18.7908 4.5135C16.5732 4.63166 14.2805 4.75257 12.44 6.02212C10.5702 7.31091 9.7355 9.36225 8.92722 11.3463C8.43473 12.554 7.97008 13.6958 7.31343 14.5504C6.66792 15.3912 5.67321 16.1524 4.62008 16.9603C2.86439 18.3054 1.05027 19.6945 0.321281 21.8214C-0.381273 23.87 0.205812 25.975 0.77342 28.0126C1.13096 29.2917 1.46763 30.4995 1.46763 31.6028C1.46763 32.7061 1.13096 33.9151 0.77342 35.1943C0.205812 37.2305 -0.381273 39.3368 0.321281 41.3868C1.05027 43.5137 2.86578 44.9056 4.62147 46.2493C5.6746 47.0545 6.66931 47.817 7.31343 48.6551C7.97147 49.5097 8.43613 50.6501 8.92722 51.8592C9.7355 53.8433 10.5716 55.896 12.4428 57.1875C14.2805 58.4543 16.5746 58.5752 18.7908 58.692C20.1736 58.7648 21.4814 58.8349 22.5762 59.1715C23.6002 59.4862 24.6589 60.1388 25.7788 60.8285C27.5845 61.9401 29.631 63.2028 31.9988 63.2028C34.3666 63.2028 36.4145 61.9401 38.2216 60.8272C39.3415 60.1374 40.3988 59.4848 41.4242 59.1701C42.519 58.8335 43.8268 58.7635 45.2096 58.6906C47.4272 58.5738 49.7199 58.4529 51.5576 57.1861C53.4316 55.8946 54.2663 53.8391 55.0746 51.8537C55.5657 50.6474 56.0289 49.507 56.6828 48.6551C57.3283 47.817 58.323 47.0545 59.3761 46.2493C61.1332 44.9042 62.9487 43.5137 63.6791 41.3854C64.3817 39.3355 63.7932 37.2305 63.2242 35.1929ZM61.0426 40.5047C60.5821 41.8485 59.1673 42.9312 57.6704 44.0771C56.5226 44.9564 55.3345 45.866 54.4664 46.9926C53.5858 48.1413 53.0293 49.507 52.4909 50.8301C51.8051 52.5174 51.1568 54.1098 49.9645 54.9314C48.7765 55.7503 46.9721 55.8451 45.0606 55.9454C43.5678 56.0237 42.0222 56.1048 40.5948 56.5445C39.2301 56.9663 37.9669 57.7426 36.7468 58.4955C35.1121 59.504 33.5693 60.4548 31.9986 60.4548C30.428 60.4548 28.8865 59.504 27.2519 58.4955C26.0332 57.744 24.7714 56.9663 23.4052 56.5445C21.9778 56.1062 20.4322 56.0237 18.9395 55.9454C17.028 55.8451 15.2222 55.749 14.0355 54.9314C12.8447 54.1098 12.195 52.5174 11.5091 50.8315C10.9707 49.5084 10.4128 48.1413 9.53082 46.9926C8.66411 45.866 7.47603 44.9564 6.3269 44.0757C4.83136 42.9298 3.41791 41.8485 2.95742 40.5047C2.52754 39.253 2.97968 37.6345 3.45686 35.9225C3.8464 34.5224 4.24984 33.077 4.24984 31.6C4.24984 30.123 3.8464 28.6789 3.45686 27.2789C2.97829 25.5669 2.52754 23.9497 2.95742 22.698C3.41791 21.3543 4.82997 20.273 6.32551 19.1271C7.47464 18.2464 8.66411 17.3354 9.52943 16.2074C10.4142 15.0587 10.9707 13.6903 11.5105 12.3671C12.195 10.6813 12.8433 9.09021 14.0327 8.27132C15.2208 7.45106 17.028 7.35625 18.9409 7.25595C20.4322 7.17626 21.9778 7.0952 23.4038 6.65553C24.7714 6.23509 26.0346 5.45605 27.256 4.70311C28.8879 3.69874 30.4294 2.74795 31.9986 2.74795C33.5679 2.74795 35.1107 3.69874 36.744 4.70586C37.9655 5.46017 39.2273 6.23784 40.5948 6.65827C42.0208 7.09657 43.565 7.17764 45.0578 7.25733C46.9707 7.35763 48.7765 7.45518 49.9645 8.27407C51.1554 9.0957 51.8037 10.6868 52.4882 12.3699C53.0279 13.6944 53.583 15.0615 54.4678 16.2101C55.3345 17.3368 56.5226 18.2464 57.6704 19.1257C59.1673 20.273 60.5821 21.3557 61.0426 22.7022C61.4725 23.9511 61.019 25.5683 60.5418 27.2802C60.1509 28.6803 59.7474 30.1257 59.7474 31.6028C59.7474 33.0798 60.1495 34.5252 60.5418 35.9239C61.0205 37.6359 61.4725 39.253 61.0426 40.5047Z" fill="white"/>
<path d="M31.9988 10.9909C20.4922 10.9909 11.1309 20.2364 11.1309 31.6005C11.1309 42.9647 20.4922 52.2102 31.9988 52.2102C43.5054 52.2102 52.8667 42.9647 52.8667 31.6005C52.8667 20.2364 43.5054 10.9909 31.9988 10.9909ZM31.9988 49.4622C22.0267 49.4622 13.9133 41.4492 13.9133 31.6005C13.9133 21.7519 22.0267 13.7389 31.9988 13.7389C37.142 13.7389 41.7789 15.8809 45.076 19.2966L31.8179 37.723L24.6352 30.6291C24.0912 30.0919 23.212 30.0919 22.668 30.6291C22.1241 31.1664 22.1241 32.0347 22.668 32.5719L31.0152 40.8158C31.2768 41.0755 31.6315 41.2184 31.9988 41.2184C32.0364 41.2184 32.0767 41.217 32.1157 41.2129C32.5233 41.1799 32.8961 40.9697 33.1326 40.6399L46.9013 21.5032C48.9046 24.3776 50.0843 27.8537 50.0843 31.6005C50.0843 41.4492 41.9709 49.4622 31.9988 49.4622Z" fill="white"/>
</svg>

<svg width="64" height="64" fill="none" xmlns="http://www.w3.org/2000/svg"><path d="M63.224 35.193c-.357-1.28-.694-2.488-.694-3.592 0-1.103.337-2.312.694-3.591.57-2.036 1.156-4.143.454-6.19-.73-2.13-2.546-3.521-4.303-4.865-1.053-.807-2.048-1.568-2.694-2.406-.656-.855-1.12-1.995-1.61-3.203-.809-1.984-1.644-4.036-3.513-5.325-1.84-1.27-4.135-1.392-6.351-1.509-1.383-.073-2.69-.143-3.786-.48-1.023-.314-2.084-.967-3.205-1.658C36.412 1.261 34.366 0 32 0c-2.367 0-4.413 1.261-6.217 2.376-1.122.69-2.18 1.345-3.204 1.658-1.097.337-2.404.407-3.787.48-2.218.118-4.51.239-6.351 1.508-1.87 1.289-2.704 3.34-3.513 5.324-.492 1.208-.957 2.35-1.614 3.204-.645.841-1.64 1.602-2.693 2.41-1.756 1.345-3.57 2.735-4.299 4.861-.702 2.049-.115 4.154.452 6.192.358 1.279.695 2.486.695 3.59 0 1.103-.337 2.312-.695 3.591C.206 37.23-.38 39.337.321 41.387c.73 2.127 2.545 3.519 4.3 4.862 1.054.805 2.048 1.568 2.692 2.406.658.855 1.123 1.995 1.614 3.204.809 1.984 1.645 4.037 3.516 5.328 1.838 1.267 4.132 1.388 6.348 1.505 1.383.073 2.69.143 3.785.48 1.024.314 2.083.967 3.203 1.657 1.805 1.111 3.852 2.374 6.22 2.374s4.415-1.263 6.223-2.376c1.12-.69 2.177-1.342 3.202-1.657 1.095-.337 2.403-.407 3.786-.48 2.217-.116 4.51-.237 6.348-1.504 1.874-1.291 2.708-3.347 3.517-5.332.49-1.207.954-2.347 1.608-3.199.645-.838 1.64-1.6 2.693-2.406 1.757-1.345 3.573-2.735 4.303-4.864.703-2.05.114-4.154-.455-6.192zm-2.181 5.312c-.46 1.343-1.876 2.426-3.373 3.572-1.147.88-2.336 1.789-3.204 2.916-.88 1.148-1.437 2.514-1.975 3.837-.686 1.687-1.334 3.28-2.526 4.101-1.189.82-2.993.914-4.904 1.014-1.493.079-3.039.16-4.466.6-1.365.421-2.628 1.198-3.848 1.95-1.635 1.009-3.178 1.96-4.748 1.96-1.571 0-3.112-.951-4.747-1.96-1.219-.751-2.48-1.529-3.847-1.95-1.427-.439-2.973-.521-4.466-.6-1.911-.1-3.717-.196-4.903-1.014-1.191-.821-1.841-2.414-2.527-4.1-.538-1.323-1.096-2.69-1.978-3.838-.867-1.127-2.055-2.037-3.204-2.917-1.496-1.146-2.91-2.227-3.37-3.571-.43-1.252.023-2.87.5-4.583.39-1.4.793-2.845.793-4.322 0-1.477-.404-2.921-.793-4.321-.479-1.712-.93-3.33-.5-4.581.46-1.344 1.873-2.425 3.369-3.57 1.149-.882 2.338-1.793 3.203-2.92.885-1.15 1.442-2.518 1.982-3.84.684-1.687 1.332-3.278 2.522-4.097 1.188-.82 2.995-.915 4.908-1.015 1.491-.08 3.037-.16 4.463-.6 1.367-.42 2.63-1.2 3.852-1.953 1.632-1.004 3.173-1.955 4.743-1.955 1.569 0 3.112.95 4.745 1.958 1.221.754 2.483 1.532 3.85 1.952 1.427.439 2.971.52 4.464.6 1.913.1 3.718.197 4.907 1.016 1.19.822 1.839 2.413 2.523 4.096.54 1.324 1.095 2.692 1.98 3.84.866 1.127 2.055 2.036 3.202 2.916 1.497 1.147 2.912 2.23 3.373 3.576.43 1.25-.024 2.866-.501 4.578-.391 1.4-.795 2.846-.795 4.323 0 1.477.403 2.922.795 4.32.478 1.713.93 3.33.5 4.582z" fill="#fff"/><path d="M31.999 10.99c-11.507 0-20.868 9.246-20.868 20.61 0 11.365 9.361 20.61 20.868 20.61 11.506 0 20.868-9.245 20.868-20.61 0-11.364-9.362-20.61-20.868-20.61zm0 38.472c-9.972 0-18.086-8.013-18.086-17.862 0-9.848 8.114-17.861 18.086-17.861 5.143 0 9.78 2.142 13.077 5.558L31.818 37.723l-7.183-7.094a1.402 1.402 0 00-1.967 0 1.36 1.36 0 000 1.943l8.347 8.244a1.395 1.395 0 001.1.397 1.39 1.39 0 001.018-.573L46.9 21.503a17.598 17.598 0 013.183 10.098c0 9.848-8.113 17.861-18.085 17.861z" fill="#fff"/></svg>
